X: 481
U:~=!turn!
M:C
L:1/8
K:F
f | (a/g/).f/.g/ (a>c) f<c ~f2 | (a/g/).f/.g/ (a<f) e<g ~g2 | (a/g/).f/.g/ (a<e) f<cf>d | c>A (c/B/)A/G/ F2 Ff |
(a/g/).f/g/ (a<e) fc ~f2 | (a/g/).f/.g/ a<f eg ~g2 | {fg}a>fd<f c<Af>d | c>A (c/B/)A/G/ F2 F |]


